X: 22024
T: Klappvalsen
R: jig
M: 6/8
K: Amixolydian
|:A2|A2c BAG|A2c de2|e2g fed|efe dcB|
A2c BAG|A2c de2|e2g fed|e3 z:|
|:e2|e2a gab|a2g fe2|e2g-g2g|g2f efd|
e2a gab|a2g fe2|g2g e2f|d3 z:|

